src/actions/24/document-preview-archive.svg

<svg xmlns="http://www.w3.org/2000/svg" viewBox="0 0 24 24">
  <defs id="defs3051">
    <style type="text/css" id="current-color-scheme">
      .ColorScheme-Text {
        color:#2e3440;
      }
      </style>
  </defs>
 <path 
    style="fill:currentColor;fill-opacity:1;stroke:none" 
	d="M 5 4 L 5 20 L 6 20 L 13 20 L 13 19 L 6 19 L 6 5 L 18 5 L 18 14 L 19 14 L 19 4 L 18 4 L 6 4 L 5 4 z M 14 12 C 12.337997 12 11 13.337997 11 15 C 11 16.662003 12.337997 18 14 18 C 14.649392 18 15.246354 17.791414 15.736328 17.443359 L 18.292969 20 L 19 19.292969 L 16.443359 16.736328 C 16.791414 16.246354 17 15.649392 17 15 C 17 13.337997 15.662003 12 14 12 z M 14 13 C 15.108003 13 16 13.891997 16 15 C 16 16.108003 15.108003 17 14 17 C 12.891997 17 12 16.108003 12 15 C 12 13.891997 12.891997 13 14 13 z "
    class="ColorScheme-Text"
    />
</svg>

<svg viewBox="0 0 24 24" xmlns="http://www.w3.org/2000/svg">
 <defs>
  <style type="text/css">.ColorScheme-Text {
        color:#2e3440;
      }</style>
 </defs>
 <path class="ColorScheme-Text" d="m5 4v16h1 7v-1h-7v-14h12v9h1v-10h-1-12-1zm9 8c-1.662 0-3 1.338-3 3s1.338 3 3 3c0.64939 0 1.2464-0.20859 1.7363-0.55664l2.5566 2.5566 0.70703-0.70703-2.5566-2.5566c0.34806-0.48997 0.55664-1.0869 0.55664-1.7363 0-1.662-1.338-3-3-3zm0 1c1.108 0 2 0.892 2 2s-0.892 2-2 2-2-0.892-2-2 0.892-2 2-2z" fill="currentColor"/>
</svg>
